dist/images/coat-bg.svg

<svg width="500" height="500" fill="none" xmlns="http://www.w3.org/2000/svg"><path d="M103.906 143.75H67.578c-9.693 0-17.578 7.885-17.578 17.578s7.885 17.578 17.578 17.578h36.328c9.693 0 17.578-7.885 17.578-17.578s-7.885-17.578-17.578-17.578zm0 23.438H67.578a5.866 5.866 0 01-5.86-5.86 5.865 5.865 0 015.86-5.859h36.328a5.865 5.865 0 015.86 5.859 5.866 5.866 0 01-5.86 5.86zm17.578 41.015c0-9.693-7.885-17.578-17.578-17.578H67.578c-9.693 0-17.578 7.885-17.578 17.578 0 7.639 4.9 14.152 11.719 16.57v155.922C54.899 383.114 50 389.627 50 397.266c0 9.693 7.885 17.578 17.578 17.578h36.328c9.693 0 17.578-7.885 17.578-17.578 0-7.639-4.899-14.152-11.718-16.571V224.773c6.819-2.418 11.718-8.931 11.718-16.57zm-17.578 194.922H67.578a5.865 5.865 0 01-5.86-5.859 5.866 5.866 0 015.86-5.86h36.328a5.866 5.866 0 015.86 5.86 5.865 5.865 0 01-5.86 5.859zm-30.469-23.437V225.781h24.61v153.907h-24.61zm30.469-165.626H67.578a5.865 5.865 0 01-5.86-5.859 5.865 5.865 0 015.86-5.859h36.328a5.865 5.865 0 015.86 5.859 5.865 5.865 0 01-5.86 5.859zm11.719 224.219c-5.373 0-7.827-2.015-11.223-4.802-4.051-3.325-9.092-7.463-18.66-7.463s-14.608 4.138-18.66 7.463c-3.395 2.787-5.85 4.802-11.223 4.802a5.86 5.86 0 000 11.719c9.568 0 14.609-4.138 18.66-7.463 3.396-2.788 5.85-4.803 11.223-4.803 5.374 0 7.828 2.015 11.224 4.803 4.05 3.325 9.091 7.463 18.659 7.463a5.86 5.86 0 000-11.719zm280.469-259.375h36.328c9.692 0 17.578-7.885 17.578-17.578s-7.886-17.578-17.578-17.578h-36.328c-9.692 0-17.578 7.885-17.578 17.578s7.886 17.578 17.578 17.578zm0-23.437h36.328a5.865 5.865 0 015.859 5.859 5.866 5.866 0 01-5.859 5.86h-36.328a5.867 5.867 0 01-5.86-5.86 5.866 5.866 0 015.86-5.859zM450 208.203c0-9.693-7.886-17.578-17.578-17.578h-36.328c-9.692 0-17.578 7.885-17.578 17.578 0 7.638 4.899 14.152 11.718 16.57v155.922c-6.819 2.419-11.718 8.932-11.718 16.571 0 9.693 7.886 17.578 17.578 17.578h36.328c9.692 0 17.578-7.885 17.578-17.578 0-7.639-4.899-14.152-11.719-16.571V224.773c6.82-2.418 11.719-8.932 11.719-16.57zm-17.578 194.922h-36.328a5.866 5.866 0 01-5.86-5.859 5.866 5.866 0 015.86-5.86h36.328a5.865 5.865 0 015.859 5.86 5.865 5.865 0 01-5.859 5.859zm-30.469-23.437V225.781h24.609v153.907h-24.609zm30.469-165.626h-36.328a5.866 5.866 0 01-5.86-5.859 5.866 5.866 0 015.86-5.859h36.328a5.865 5.865 0 015.859 5.859 5.865 5.865 0 01-5.859 5.859zm11.719 224.219c-5.374 0-7.828-2.015-11.224-4.802-4.051-3.325-9.091-7.463-18.659-7.463s-14.609 4.138-18.66 7.463c-3.395 2.787-5.85 4.802-11.223 4.802a5.859 5.859 0 00-5.859 5.86 5.858 5.858 0 005.859 5.859c9.568 0 14.609-4.138 18.659-7.463 3.396-2.788 5.85-4.803 11.224-4.803 5.373 0 7.828 2.015 11.223 4.803 4.051 3.325 9.092 7.463 18.66 7.463a5.86 5.86 0 000-11.719zM205.664 214.062a5.86 5.86 0 00-5.859 5.86v5.859h-11.719v-5.859a5.86 5.86 0 10-11.719 0v49.219a5.86 5.86 0 005.86 5.859h23.437a5.859 5.859 0 005.859-5.859v-49.219a5.86 5.86 0 00-5.859-5.86zm-5.859 49.219h-11.719V237.5h11.719v25.781zm82.812-12.89h17.578v18.75a5.859 5.859 0 0011.719 0v-18.75h11.719v18.75a5.858 5.858 0 005.859 5.859 5.859 5.859 0 005.86-5.859v-25.782c0-16.154-13.143-29.297-29.297-29.297-16.155 0-29.297 13.143-29.297 29.297v1.172a5.859 5.859 0 005.859 5.86zm23.438-24.61c8.069 0 14.887 5.467 16.943 12.891h-33.886c2.055-7.424 8.873-12.891 16.943-12.891zm-22.113 101.604l13.24 13.24-13.24 13.24a5.86 5.86 0 108.288 8.286l13.239-13.239 13.239 13.239a5.842 5.842 0 004.144 1.716 5.857 5.857 0 004.143-10.002l-13.239-13.24 13.239-13.24a5.86 5.86 0 00-8.286-8.286l-13.24 13.239-13.239-13.239a5.86 5.86 0 00-8.288 8.286z" fill="#F5F7FA"/><path d="M360.938 190.625H139.062a5.86 5.86 0 00-5.859 5.859v136.719C133.203 397.605 185.598 450 250 450c64.402 0 116.797-52.395 116.797-116.797V196.484a5.859 5.859 0 00-5.859-5.859zM228.125 292.578c0-12.062 9.813-21.875 21.875-21.875s21.875 9.813 21.875 21.875-9.813 21.875-21.875 21.875-21.875-9.813-21.875-21.875zm16.016 33.072v7.553c0 14.406-6.178 27.392-16.016 36.463v-51.625a33.476 33.476 0 0016.016 7.609zm-99.219-123.306h99.219v57.162c-13.835 2.445-24.768 13.378-27.213 27.213h-72.006v-84.375zm71.484 96.094v79.277a49.214 49.214 0 01-16.015 4.74v-84.017h16.015zm-71.484 0h16.016v11.328a5.859 5.859 0 1011.718 0v-11.328h16.016v84.017a49.22 49.22 0 01-16.016-4.74v-44.512a5.859 5.859 0 10-11.718 0v36.463c-9.839-9.071-16.016-22.057-16.016-36.463v-34.765zM250 438.281c-40.594 0-75.882-23.14-93.375-56.921 10.442 8.237 23.605 13.171 37.906 13.171 24.475 0 45.639-14.416 55.469-35.199 9.83 20.783 30.994 35.199 55.469 35.199 14.301 0 27.464-4.934 37.906-13.171-17.493 33.781-52.781 56.921-93.375 56.921zm105.078-105.078c0 27.355-22.255 49.609-49.609 49.609-27.355 0-49.61-22.254-49.61-49.609v-7.553c13.835-2.445 24.768-13.378 27.213-27.212h72.006v34.765zm0-46.484h-72.006c-2.445-13.835-13.378-24.767-27.213-27.213v-57.162h99.219v84.375zM167.791 173.047a5.859 5.859 0 005.859 5.859h152.701a5.858 5.858 0 005.859-5.859v-21.074c7.963-8.665 12.321-19.811 12.321-31.661 0-25.846-21.028-46.874-46.875-46.874a46.87 46.87 0 00-31.064 11.782 17.606 17.606 0 00-3.508-5.92 17.504 17.504 0 004.495-11.722C267.578 57.885 259.692 50 250 50c-9.693 0-17.578 7.885-17.578 17.578a17.5 17.5 0 004.498 11.719 17.59 17.59 0 00-3.512 5.923 46.877 46.877 0 00-31.064-11.782c-25.847 0-46.875 21.028-46.875 46.874 0 11.85 4.358 22.997 12.322 31.661v21.074zm99.787-70.9c6.36-10.509 17.745-16.99 30.078-16.99 19.385 0 35.156 15.77 35.156 35.155 0 8.748-3.174 16.982-8.971 23.438h-6.105a23.284 23.284 0 003.228-11.848c0-12.924-10.514-23.438-23.437-23.438h-29.949v-6.317zm0 18.035h29.948c6.462 0 11.719 5.257 11.719 11.719s-5.257 11.719-11.719 11.719v.13h-29.948v-23.568zM250 61.719a5.865 5.865 0 015.859 5.86A5.865 5.865 0 01250 73.437a5.865 5.865 0 01-5.859-5.86 5.865 5.865 0 015.859-5.86zm-5.859 29.297a5.865 5.865 0 015.859-5.86 5.865 5.865 0 015.859 5.86v52.734h-11.718V91.016zm76.35 64.453v11.719H179.509v-11.719h140.982zm-129.996-23.568c0-6.462 5.257-11.719 11.718-11.719h30.209v23.568h-30.209v-.13c-6.461 0-11.718-5.257-11.718-11.719zm-23.307-11.589c0-19.385 15.771-35.156 35.156-35.156 12.332 0 23.718 6.482 30.078 16.992v6.316h-30.209c-12.923 0-23.437 10.514-23.437 23.438 0 4.321 1.18 8.368 3.228 11.848h-5.845c-5.797-6.455-8.971-14.689-8.971-23.438z" fill="#F5F7FA"/></svg>

<svg width="500" height="500" viewBox="0 0 500 500" fill="none" xmlns="http://www.w3.org/2000/svg">
<path d="M103.906 143.75H67.5781C57.8852 143.75 50 151.635 50 161.328C50 171.021 57.8852 178.906 67.5781 178.906H103.906C113.599 178.906 121.484 171.021 121.484 161.328C121.484 151.635 113.599 143.75 103.906 143.75ZM103.906 167.188H67.5781C64.3469 167.188 61.7188 164.559 61.7188 161.328C61.7188 158.097 64.3469 155.469 67.5781 155.469H103.906C107.138 155.469 109.766 158.097 109.766 161.328C109.766 164.559 107.138 167.188 103.906 167.188Z" fill="#F5F7FA"/>
<path d="M121.484 208.203C121.484 198.51 113.599 190.625 103.906 190.625H67.5781C57.8852 190.625 50 198.51 50 208.203C50 215.842 54.8992 222.355 61.7188 224.773V380.695C54.8992 383.114 50 389.627 50 397.266C50 406.959 57.8852 414.844 67.5781 414.844H103.906C113.599 414.844 121.484 406.959 121.484 397.266C121.484 389.627 116.585 383.114 109.766 380.695V224.773C116.585 222.355 121.484 215.842 121.484 208.203ZM103.906 403.125H67.5781C64.3469 403.125 61.7188 400.497 61.7188 397.266C61.7188 394.034 64.3469 391.406 67.5781 391.406H103.906C107.138 391.406 109.766 394.034 109.766 397.266C109.766 400.497 107.138 403.125 103.906 403.125ZM73.4375 379.688V225.781H98.0469V379.688H73.4375ZM103.906 214.062H67.5781C64.3469 214.062 61.7188 211.434 61.7188 208.203C61.7188 204.972 64.3469 202.344 67.5781 202.344H103.906C107.138 202.344 109.766 204.972 109.766 208.203C109.766 211.434 107.138 214.062 103.906 214.062Z" fill="#F5F7FA"/>
<path d="M115.625 438.281C110.252 438.281 107.798 436.266 104.402 433.479C100.351 430.154 95.3102 426.016 85.7422 426.016C76.1742 426.016 71.1336 430.154 67.0828 433.479C63.6867 436.266 61.2328 438.281 55.8594 438.281C52.6234 438.281 50 440.905 50 444.141C50 447.377 52.6234 450 55.8594 450C65.4273 450 70.468 445.862 74.5188 442.537C77.9148 439.749 80.3687 437.734 85.7422 437.734C91.1156 437.734 93.5695 439.749 96.9656 442.537C101.016 445.862 106.057 450 115.625 450C118.861 450 121.484 447.377 121.484 444.141C121.484 440.905 118.861 438.281 115.625 438.281Z" fill="#F5F7FA"/>
<path d="M396.094 178.906H432.422C442.114 178.906 450 171.021 450 161.328C450 151.635 442.114 143.75 432.422 143.75H396.094C386.402 143.75 378.516 151.635 378.516 161.328C378.516 171.021 386.402 178.906 396.094 178.906ZM396.094 155.469H432.422C435.653 155.469 438.281 158.097 438.281 161.328C438.281 164.559 435.653 167.188 432.422 167.188H396.094C392.863 167.188 390.234 164.559 390.234 161.328C390.234 158.097 392.863 155.469 396.094 155.469Z" fill="#F5F7FA"/>
<path d="M450 208.203C450 198.51 442.114 190.625 432.422 190.625H396.094C386.402 190.625 378.516 198.51 378.516 208.203C378.516 215.841 383.415 222.355 390.234 224.773V380.695C383.415 383.114 378.516 389.627 378.516 397.266C378.516 406.959 386.402 414.844 396.094 414.844H432.422C442.114 414.844 450 406.959 450 397.266C450 389.627 445.101 383.114 438.281 380.695V224.773C445.101 222.355 450 215.841 450 208.203ZM432.422 403.125H396.094C392.863 403.125 390.234 400.497 390.234 397.266C390.234 394.034 392.863 391.406 396.094 391.406H432.422C435.653 391.406 438.281 394.034 438.281 397.266C438.281 400.497 435.653 403.125 432.422 403.125ZM401.953 379.688V225.781H426.562V379.688H401.953ZM432.422 214.062H396.094C392.863 214.062 390.234 211.434 390.234 208.203C390.234 204.972 392.863 202.344 396.094 202.344H432.422C435.653 202.344 438.281 204.972 438.281 208.203C438.281 211.434 435.653 214.062 432.422 214.062Z" fill="#F5F7FA"/>
<path d="M444.141 438.281C438.767 438.281 436.313 436.266 432.917 433.479C428.866 430.154 423.826 426.016 414.258 426.016C404.69 426.016 399.649 430.154 395.598 433.479C392.203 436.266 389.748 438.281 384.375 438.281C381.138 438.281 378.516 440.905 378.516 444.141C378.516 447.377 381.138 450 384.375 450C393.943 450 398.984 445.862 403.034 442.537C406.43 439.749 408.884 437.734 414.258 437.734C419.631 437.734 422.086 439.749 425.481 442.537C429.532 445.862 434.573 450 444.141 450C447.377 450 450 447.377 450 444.141C450 440.905 447.377 438.281 444.141 438.281Z" fill="#F5F7FA"/>
<path d="M205.664 214.062C202.428 214.062 199.805 216.686 199.805 219.922V225.781H188.086V219.922C188.086 216.686 185.463 214.062 182.227 214.062C178.991 214.062 176.367 216.686 176.367 219.922V269.141C176.367 272.377 178.991 275 182.227 275H205.664C208.9 275 211.523 272.377 211.523 269.141V219.922C211.523 216.686 208.9 214.062 205.664 214.062ZM199.805 263.281H188.086V237.5H199.805V263.281Z" fill="#F5F7FA"/>
<path d="M282.617 250.391H300.195V269.141C300.195 272.377 302.818 275 306.055 275C309.291 275 311.914 272.377 311.914 269.141V250.391H323.633V269.141C323.633 272.377 326.255 275 329.492 275C332.729 275 335.352 272.377 335.352 269.141V243.359C335.352 227.205 322.209 214.062 306.055 214.062C289.9 214.062 276.758 227.205 276.758 243.359V244.531C276.758 247.767 279.38 250.391 282.617 250.391ZM306.055 225.781C314.124 225.781 320.942 231.248 322.998 238.672H289.112C291.167 231.248 297.985 225.781 306.055 225.781Z" fill="#F5F7FA"/>
<path d="M283.942 327.385L297.182 340.625L283.942 353.865C281.654 356.153 281.654 359.863 283.942 362.151C285.087 363.295 286.587 363.867 288.086 363.867C289.585 363.867 291.085 363.295 292.23 362.151L305.469 348.912L318.708 362.151C319.852 363.295 321.352 363.867 322.852 363.867C324.351 363.867 325.851 363.295 326.995 362.151C329.284 359.863 329.284 356.152 326.995 353.865L313.756 340.625L326.995 327.385C329.284 325.097 329.284 321.387 326.995 319.099C324.706 316.811 320.997 316.811 318.709 319.099L305.469 332.338L292.23 319.099C289.941 316.811 286.231 316.811 283.943 319.099C281.655 321.387 281.655 325.098 283.942 327.385Z" fill="#F5F7FA"/>
<path d="M360.938 190.625H139.062C135.827 190.625 133.203 193.248 133.203 196.484V333.203C133.203 397.605 185.598 450 250 450C314.402 450 366.797 397.605 366.797 333.203V196.484C366.797 193.248 364.174 190.625 360.938 190.625ZM228.125 292.578C228.125 280.516 237.938 270.703 250 270.703C262.062 270.703 271.875 280.516 271.875 292.578C271.875 304.64 262.062 314.453 250 314.453C237.938 314.453 228.125 304.64 228.125 292.578ZM244.141 325.65V333.203C244.141 347.609 237.963 360.595 228.125 369.666V318.041C232.599 321.891 238.091 324.58 244.141 325.65ZM144.922 202.344H244.141V259.506C230.306 261.951 219.373 272.884 216.928 286.719H144.922V202.344ZM216.406 298.438V377.715C211.472 380.15 206.077 381.782 200.391 382.455V298.438H216.406ZM144.922 298.438H160.938V309.766C160.938 313.002 163.561 315.625 166.797 315.625C170.033 315.625 172.656 313.002 172.656 309.766V298.438H188.672V382.455C182.985 381.782 177.591 380.15 172.656 377.715V333.203C172.656 329.967 170.033 327.344 166.797 327.344C163.561 327.344 160.938 329.967 160.938 333.203V369.666C151.099 360.595 144.922 347.609 144.922 333.203V298.438ZM250 438.281C209.406 438.281 174.118 415.141 156.625 381.36C167.067 389.597 180.23 394.531 194.531 394.531C219.006 394.531 240.17 380.115 250 359.332C259.83 380.115 280.994 394.531 305.469 394.531C319.77 394.531 332.933 389.597 343.375 381.36C325.882 415.141 290.594 438.281 250 438.281ZM355.078 333.203C355.078 360.558 332.823 382.812 305.469 382.812C278.114 382.812 255.859 360.558 255.859 333.203V325.65C269.694 323.205 280.627 312.272 283.072 298.438H355.078V333.203ZM355.078 286.719H283.072C280.627 272.884 269.694 261.952 255.859 259.506V202.344H355.078V286.719Z" fill="#F5F7FA"/>
<path d="M167.791 173.047C167.791 176.283 170.414 178.906 173.65 178.906H326.351C329.588 178.906 332.21 176.283 332.21 173.047V151.973C340.173 143.308 344.531 132.162 344.531 120.312C344.531 94.4656 323.503 73.4375 297.656 73.4375C286.034 73.4375 275.037 77.7484 266.592 85.2203C265.819 83.0125 264.613 81.0078 263.084 79.3C265.876 76.1867 267.579 72.0789 267.579 67.5781C267.578 57.8852 259.692 50 250 50C240.307 50 232.422 57.8852 232.422 67.5781C232.422 72.0789 234.128 76.1844 236.92 79.2969C235.388 81.0055 234.182 83.0109 233.408 85.2203C224.963 77.7492 213.965 73.4375 202.344 73.4375C176.497 73.4375 155.469 94.4656 155.469 120.312C155.469 132.162 159.827 143.309 167.791 151.973V173.047ZM267.578 102.147C273.938 91.6383 285.323 85.1562 297.656 85.1562C317.041 85.1562 332.812 100.927 332.812 120.312C332.812 129.06 329.638 137.294 323.841 143.75H317.736C319.784 140.27 320.964 136.223 320.964 131.902C320.964 118.978 310.45 108.464 297.527 108.464H267.578V102.147ZM267.578 120.182H297.526C303.988 120.182 309.245 125.439 309.245 131.901C309.245 138.363 303.988 143.62 297.526 143.62V143.75H267.578V120.182ZM250 61.7188C253.231 61.7188 255.859 64.3469 255.859 67.5781C255.859 70.8094 253.231 73.4375 250 73.4375C246.769 73.4375 244.141 70.8094 244.141 67.5781C244.141 64.3469 246.769 61.7188 250 61.7188ZM244.141 91.0156C244.141 87.7844 246.769 85.1562 250 85.1562C253.231 85.1562 255.859 87.7844 255.859 91.0156V143.75H244.141V91.0156ZM320.491 155.469V167.188H179.509V155.469H320.491ZM190.495 131.901C190.495 125.439 195.752 120.182 202.213 120.182H232.422V143.75H202.213V143.62C195.752 143.62 190.495 138.363 190.495 131.901ZM167.188 120.312C167.188 100.927 182.959 85.1562 202.344 85.1562C214.676 85.1562 226.062 91.6383 232.422 102.148V108.464H202.213C189.29 108.464 178.776 118.978 178.776 131.902C178.776 136.223 179.956 140.27 182.004 143.75H176.159C170.362 137.295 167.188 129.061 167.188 120.312Z" fill="#F5F7FA"/>
</svg>
